X:1
T:Canon in D
T:Canon in D
T:Johann Pachelbel
C:Johann Pachelbel
L:1/8
M:4/4
K:D
V:1 bass nm="Piano" snm="Pno."
V:1
 D,D,,/E,,/ F,,D,, C,,C,/D,/ E,C, | B,,B,,/C,,/ D,,B,, C,,A,,/G,,/ F,,E,, | %2
 D,,G,,/F,,/ D,,G,, F,,D,,/E,,/ F,,A,, | G,,B,,/A,,/ G,,F,, E,,A,,/G,,/ F,,E,, | %4
 E,,D,/C,/ D,E,, A,,A,,/B,,/ C,A,, | F,,D,/E,/ F,D, F,F,/E,/ D,C, | %6
 B,,B,,/A,,/ B,,C, D,F,/E,/ D,F, | G,D,/C,/ B,,B,, A,,E,,A,,A,, |] %8

